X: 1
T: Starlight
T: 8 x 32R 3C (RSCDS Book 44)
P: Mrs. Agnes Ritchie
C: David Cunningham Sr.. arr. T. Traub 8-23-2006
L: 1/8
M: 4/4
R: Reel
K: G
|: D2 |"G"G2 GB dBGB |dgfg "E7"edcB|"Am"A2 AB "C"cBAG|"D"FADF AcBA|"G"G2 GB dBGB|
"G"dgfg "E7"edcB|"Am"A2 AB "C"cBAG|"D"FDEF "G"G2 :||: d2|"G"g3 f gdBd|"G"gGBd "E7"edcB|
"Am"a2 a^g a=gfe|"D"d2 fe dcBA|"G"G2 GB dBGB|"G"dgfg "E7"edcB|"Am"A2 AB "C"cBAG|"D"FDEF "G"G2 :|
